X: 137
T: Gandier xi li The pass of Gandir
%%abc-version 2.0
%%abcx-abcm2ps-target-version 5.9.1 (29 Sep 2008)
%%abc-creator hum2abc beta
%%abcx-conversion-date 2013/10/02 07:44:27
%%abc-edited-by Helmut Schaffrath
%%humdrum-veritas 1183720052
%%humdrum-veritas-data 1276834465
%%continueall 1
%%barnumbers 0
L: 1/8
M: 2/4
K: C
E3A [I:setbarnb 1]| 
G2A2 | 
C DE2 | 
E CA,2 | 
G2A2 | 
e2c e | 
cA2c | 
A4 | 
e2A2 | 
A GE2 | 
G2A2 | 
e2c e | 
cA2c | 
A4 | 
A3d | 
c dE2 | 
A3d | 
c2G2 | 
A3c | 
G2E2 | 
DC2G | 
E4 | 
A G E c | 
A4 |]  



